images/ic_address_sign.svg

<svg width="12" height="12" viewBox="0 0 12 12" fill="none" xmlns="http://www.w3.org/2000/svg">
<path d="M10.8901 5.94L9.89014 4.69C9.84358 4.63107 9.78434 4.58339 9.71682 4.5505C9.6493 4.51761 9.57524 4.50035 9.50014 4.5H6.50014V1.5C6.50014 1.36739 6.44746 1.24021 6.35369 1.14645C6.25993 1.05268 6.13275 1 6.00014 1C5.86753 1 5.74036 1.05268 5.64659 1.14645C5.55282 1.24021 5.50014 1.36739 5.50014 1.5V2H2.50014C2.42504 2.00035 2.35098 2.01761 2.28346 2.0505C2.21594 2.08339 2.1567 2.13107 2.11014 2.19L1.11014 3.44C1.04039 3.52827 1.00244 3.63749 1.00244 3.75C1.00244 3.86251 1.04039 3.97173 1.11014 4.06L2.11014 5.31C2.1567 5.36893 2.21594 5.41661 2.28346 5.4495C2.35098 5.48239 2.42504 5.49965 2.50014 5.5H5.50014V10H4.50014C4.36753 10 4.24036 10.0527 4.14659 10.1464C4.05282 10.2402 4.00014 10.3674 4.00014 10.5C4.00014 10.6326 4.05282 10.7598 4.14659 10.8536C4.24036 10.9473 4.36753 11 4.50014 11H7.50014C7.63275 11 7.75993 10.9473 7.85369 10.8536C7.94746 10.7598 8.00014 10.6326 8.00014 10.5C8.00014 10.3674 7.94746 10.2402 7.85369 10.1464C7.75993 10.0527 7.63275 10 7.50014 10H6.50014V8H9.50014C9.57524 7.99965 9.6493 7.98239 9.71682 7.9495C9.78434 7.91661 9.84358 7.86893 9.89014 7.81L10.8901 6.56C10.9599 6.47173 10.9978 6.36251 10.9978 6.25C10.9978 6.13749 10.9599 6.02827 10.8901 5.94ZM5.50014 4.5H2.74014L2.14014 3.75L2.74014 3H5.50014V4.5ZM9.26014 7H6.50014V5.5H9.26014L9.86014 6.25L9.26014 7Z" fill="#929292"/>
</svg>

<svg xmlns="http://www.w3.org/2000/svg" fill="none" viewBox="0 0 12 12"><path d="M10.9 5.94l-1-1.25a.5.5 0 0 0-.39-.19h-3v-3A.5.5 0 0 0 6 1a.5.5 0 0 0-.5.5V2h-3a.5.5 0 0 0-.39.19l-1 1.25a.5.5 0 0 0 0 .62l1 1.25a.5.5 0 0 0 .39.19h3V10h-1a.5.5 0 0 0-.5.5.5.5 0 0 0 .5.5h3a.5.5 0 0 0 .5-.5.5.5 0 0 0-.5-.5h-1V8h3a.5.5 0 0 0 .39-.19l1-1.25a.5.5 0 0 0 0-.62zM5.5 4.5H2.74l-.6-.75.6-.75H5.5v1.5zM9.26 7H6.5V5.5h2.76l.6.75-.6.75z" fill="#929292"/></svg>
